src/3-context/medic.svg

<svg width="1300" height="1000" viewBox="0 0 1300 1000" fill="none" xmlns="http://www.w3.org/2000/svg"><path fill-rule="evenodd" clip-rule="evenodd" d="M839 0h-7v66c0 11.046 8.954 20 20 20h57.336C904.22 91.035 901 98.354 901 106.5c0 3.339.541 6.539 1.532 9.5H886c-11.046 0-20 8.954-20 20v433h7V138c0-8.284 6.716-15 15-15h17.998c4.561 6.679 11.823 11 20.002 11 8.179 0 15.441-4.321 20.002-11h49.996c4.562 6.679 11.822 11 20.002 11s15.44-4.321 20-11h50c4.56 6.679 11.82 11 20 11s15.44-4.321 20-11h50c4.56 6.679 11.82 11 20 11s15.44-4.321 20-11h12c8.28 0 15 6.716 15 15v762h7V136c0-11.046-8.95-20-20-20h-10.53a29.934 29.934 0 0 0 1.53-9.5c0-8.146-3.22-15.465-8.34-20.5H1300v-7H854c-8.284 0-15-6.716-15-15V0Zm340.34 86h-56.68c5.12 5.035 8.34 12.354 8.34 20.5 0 3.339-.54 6.539-1.53 9.5h43.06a29.934 29.934 0 0 1-1.53-9.5c0-8.146 3.22-15.465 8.34-20.5Zm5.98 37c2.98 2.514 6.68 4 10.68 4s7.7-1.486 10.68-4h-21.36Zm26.63-7h-31.9c-1.31-2.84-2.05-6.072-2.05-9.5 0-11.322 8.06-20.5 18-20.5s18 9.178 18 20.5c0 3.428-.74 6.66-2.05 9.5ZM1106 127c-4 0-7.7-1.486-10.68-4h21.36c-2.98 2.514-6.68 4-10.68 4Zm-15.95-11h31.9c1.31-2.84 2.05-6.072 2.05-9.5 0-11.322-8.06-20.5-18-20.5s-18 9.178-18 20.5c0 3.428.74 6.66 2.05 9.5Zm-9.05-9.5c0-8.146 3.22-15.465 8.34-20.5h-56.68c5.12 5.035 8.34 12.354 8.34 20.5 0 3.339-.54 6.539-1.53 9.5h43.06a29.934 29.934 0 0 1-1.53-9.5ZM999.336 86h-56.672C947.78 91.035 951 98.354 951 106.5c0 3.339-.541 6.539-1.532 9.5h43.064a29.907 29.907 0 0 1-1.532-9.5c0-8.146 3.22-15.465 8.336-20.5Zm5.984 37c2.98 2.514 6.68 4 10.68 4s7.7-1.486 10.68-4h-21.36Zm26.63-7h-31.9c-1.311-2.84-2.05-6.072-2.05-9.5 0-11.322 8.06-20.5 18-20.5s18 9.178 18 20.5c0 3.428-.74 6.66-2.05 9.5ZM926 127c-4 0-7.696-1.486-10.684-4h21.368c-2.988 2.514-6.684 4-10.684 4Zm-15.955-11h31.91c1.306-2.84 2.045-6.072 2.045-9.5 0-11.322-8.059-20.5-18-20.5s-18 9.178-18 20.5c0 3.428.739 6.66 2.045 9.5Z" fill="#000"/><path d="M92 714h30v7H92v-7Zm30-94H92v7h30v-7Z" fill="#000"/><path fill-rule="evenodd" clip-rule="evenodd" d="M129 449v5h7v-5c0-19.882 16.118-36 36-36s36 16.118 36 36v91h-73v-16h11v-7h-11v-5h-7v5h-11v7h11v16H55c-11.046 0-20 8.954-20 20s8.954 20 20 20v320h7v-92h196v92h7V580c11.046 0 20-8.954 20-20s-8.954-20-20-20h-50v-91c0-23.748-19.252-43-43-43s-43 19.252-43 43ZM42 560c0-7.18 5.82-13 13-13h210c7.18 0 13 5.82 13 13s-5.82 13-13 13H55c-7.18 0-13-5.82-13-13Zm216 241V674H62v127h196Zm0-134H62v-87h196v87Z" fill="#000"/><path d="M873 597h-7v303h7V597Z" fill="#000"/></svg>

<svg width="1300" height="1000" viewBox="0 0 1300 1000" fill="none" xmlns="http://www.w3.org/2000/svg">
<path fill-rule="evenodd" clip-rule="evenodd" d="M839 0H832V66C832 77.0457 840.954 86 852 86H909.336C904.22 91.0355 901 98.3541 901 106.5C901 109.839 901.541 113.039 902.532 116H886C874.954 116 866 124.954 866 136V900H873V138C873 129.716 879.716 123 888 123H905.998C910.559 129.679 917.821 134 926 134C934.179 134 941.441 129.679 946.002 123H995.998C1000.56 129.679 1007.82 134 1016 134C1024.18 134 1031.44 129.679 1036 123H1086C1090.56 129.679 1097.82 134 1106 134C1114.18 134 1121.44 129.679 1126 123H1176C1180.56 129.679 1187.82 134 1196 134C1204.18 134 1211.44 129.679 1216 123H1228C1236.28 123 1243 129.716 1243 138V900H1250V136C1250 124.954 1241.05 116 1230 116H1219.47C1220.46 113.039 1221 109.839 1221 106.5C1221 98.3541 1217.78 91.0355 1212.66 86H1300V79H854C845.716 79 839 72.2843 839 64V0ZM1179.34 86H1122.66C1127.78 91.0355 1131 98.3541 1131 106.5C1131 109.839 1130.46 113.039 1129.47 116H1172.53C1171.54 113.039 1171 109.839 1171 106.5C1171 98.3541 1174.22 91.0355 1179.34 86ZM1185.32 123C1188.3 125.514 1192 127 1196 127C1200 127 1203.7 125.514 1206.68 123H1185.32ZM1211.95 116H1180.05C1178.74 113.16 1178 109.928 1178 106.5C1178 95.1782 1186.06 86 1196 86C1205.94 86 1214 95.1782 1214 106.5C1214 109.928 1213.26 113.16 1211.95 116ZM1106 127C1102 127 1098.3 125.514 1095.32 123H1116.68C1113.7 125.514 1110 127 1106 127ZM1090.05 116H1121.95C1123.26 113.16 1124 109.928 1124 106.5C1124 95.1782 1115.94 86 1106 86C1096.06 86 1088 95.1782 1088 106.5C1088 109.928 1088.74 113.16 1090.05 116ZM1081 106.5C1081 98.3541 1084.22 91.0355 1089.34 86H1032.66C1037.78 91.0355 1041 98.3541 1041 106.5C1041 109.839 1040.46 113.039 1039.47 116H1082.53C1081.54 113.039 1081 109.839 1081 106.5ZM999.336 86H942.664C947.78 91.0355 951 98.3541 951 106.5C951 109.839 950.459 113.039 949.468 116H992.532C991.541 113.039 991 109.839 991 106.5C991 98.3541 994.22 91.0355 999.336 86ZM1005.32 123C1008.3 125.514 1012 127 1016 127C1020 127 1023.7 125.514 1026.68 123H1005.32ZM1031.95 116H1000.05C998.739 113.16 998 109.928 998 106.5C998 95.1782 1006.06 86 1016 86C1025.94 86 1034 95.1782 1034 106.5C1034 109.928 1033.26 113.16 1031.95 116ZM926 127C922 127 918.304 125.514 915.316 123H936.684C933.696 125.514 930 127 926 127ZM910.045 116H941.955C943.261 113.16 944 109.928 944 106.5C944 95.1782 935.941 86 926 86C916.059 86 908 95.1782 908 106.5C908 109.928 908.739 113.16 910.045 116Z" fill="black"/>
<path d="M92 714H122V721H92V714Z" fill="black"/>
<path d="M122 620H92V627H122V620Z" fill="black"/>
<path fill-rule="evenodd" clip-rule="evenodd" d="M129 449V454H136V449C136 429.118 152.118 413 172 413C191.882 413 208 429.118 208 449V540H135V524H146V517H135V512H128V517H117V524H128V540H55C43.9543 540 35 548.954 35 560C35 571.046 43.9543 580 55 580L55 900H62V808H258V900H265V580C276.046 580 285 571.046 285 560C285 548.954 276.046 540 265 540H215V449C215 425.252 195.748 406 172 406C148.252 406 129 425.252 129 449ZM42 560C42 552.82 47.8203 547 55 547H265C272.18 547 278 552.82 278 560C278 567.18 272.18 573 265 573H55C47.8203 573 42 567.18 42 560ZM258 801V674H62V801H258ZM258 667H62V580H258V667Z" fill="black"/>
</svg>
